X:1
T:Battle Hymn of the Republic
C:Wm.Steffe
M:6/8
Q:1/8=270
K:D
V:1
%%MIDI channel 1
%%MIDI program 72
%%MIDI transpose 8
%%MIDI grace 1/8
%%MIDI ratio 3 1
|:A|A2A A2G|F2A d2e|f2f f2e|d3 -d2c|B2B B2c|d2c d2B|A2B A2F|A3 -A2A|
A2A A2G|F2A d2e|f2f f2e|d2z d3|e3 e3|d3 c3|d6-|d2z z3||
A3 -A2G|F2A d2e|(f6|d3) -d2z|B3 -B2c|d2c d2B|(A6|F3) -F2z|
A3 -A2G|F2A d2e|(f6|d2)z d3|e3 e3|d3 c3|d6-|d2z z2:|
V:2
%%MIDI channel 1
%%MIDI program 72
%%MIDI transpose 8
%%MIDI grace 1/8
%%MIDI ratio 3 1
|:!p!F|F2F F2E|D2F F2G|A2A A2G|F3 -F2A|G2G G2A|B2A B2G|F2G F2D|F3 -F2F|
F2F F2E|D2F F2G|A2A A2G|F2z F3|G3 G3|F3 E3|F6-|F2z z3||
F3 -F2E|D2F F2G|(A6|F3) -F2z|G3 -G2A|B2A B2G|(F6|D3) -D2z|
F3 -F2E|D2F F2G|(A6|F2)z F3|G3 G3|F3 E3|F6-|F2z z2:|
